icons/src/scalable/default/categories/preferences-desktop-appearance-symbolic.svg

<?xml version="1.0" encoding="UTF-8" standalone="no"?>
<svg
   viewBox="0 0 16 16"
   version="1.1"
   id="svg8"
   sodipodi:docname="preferences-desktop-appearance-symbolic.svg"
   inkscape:version="1.1.1 (eb90963e84, 2021-10-02)"
   xmlns:inkscape="http://www.inkscape.org/namespaces/inkscape"
   xmlns:sodipodi="http://sodipodi.sourceforge.net/DTD/sodipodi-0.dtd"
   xmlns="http://www.w3.org/2000/svg"
   xmlns:svg="http://www.w3.org/2000/svg"
   xmlns:rdf="http://www.w3.org/1999/02/22-rdf-syntax-ns#"
   xmlns:cc="http://creativecommons.org/ns#"
   xmlns:dc="http://purl.org/dc/elements/1.1/">
  <metadata
     id="metadata14">
    <rdf:RDF>
      <cc:Work
         rdf:about="">
        <dc:format>image/svg+xml</dc:format>
        <dc:type
           rdf:resource="http://purl.org/dc/dcmitype/StillImage" />
      </cc:Work>
    </rdf:RDF>
  </metadata>
  <defs
     id="defs12" />
  <sodipodi:namedview
     pagecolor="#ffffff"
     bordercolor="#666666"
     borderopacity="1"
     objecttolerance="10"
     gridtolerance="10"
     guidetolerance="10"
     inkscape:pageopacity="0"
     inkscape:pageshadow="2"
     inkscape:window-width="1920"
     inkscape:window-height="1043"
     id="namedview10"
     showgrid="true"
     inkscape:snap-center="true"
     inkscape:zoom="27.5"
     inkscape:cx="16.272727"
     inkscape:cy="3.8545455"
     inkscape:window-x="1920"
     inkscape:window-y="0"
     inkscape:window-maximized="1"
     inkscape:current-layer="svg8"
     inkscape:pagecheckerboard="0">
    <inkscape:grid
       type="xygrid"
       id="grid848" />
  </sodipodi:namedview>
  <path
     id="path2"
     style="font-variant-ligatures:normal;font-variant-position:normal;font-variant-caps:normal;font-variant-numeric:normal;font-variant-alternates:normal;font-feature-settings:normal;text-indent:0;text-decoration-line:none;text-decoration-style:solid;text-decoration-color:#000000;text-transform:none;text-orientation:mixed;shape-padding:0;isolation:auto;mix-blend-mode:normal;fill:#363636"
     d="M 3.9941406 1 C 2.7361406 1.015 1.8145 0.96976562 1.0625 1.3847656 A 1.88 1.88 0 0 0 0.22460938 2.3828125 C 0.059609375 2.8218125 1.8503717e-17 3.343 0 4 L 0 10 C 0 10.658 0.059609375 11.179188 0.22460938 11.617188 C 0.38860938 12.056188 0.6855 12.407234 1.0625 12.615234 C 1.8145 13.031234 2.7361406 12.985 3.9941406 13 L 12.005859 13 C 13.263859 12.986 14.1845 13.030234 14.9375 12.615234 A 1.88 1.88 0 0 0 15.775391 11.617188 C 15.939391 11.179187 16 10.657 16 10 L 16 4 C 16 3.342 15.940391 2.8218125 15.775391 2.3828125 A 1.88 1.88 0 0 0 15.671875 2.15625 L 14.898438 2.9296875 C 14.961378 3.1862708 15 3.5380595 15 4 L 15 10 C 15 10.592 14.936844 11.005625 14.839844 11.265625 C 14.741844 11.525625 14.637125 11.637281 14.453125 11.738281 C 14.087125 11.940281 13.259 11.985 12 12 L 4 12 C 2.742 11.985 1.9099219 11.940281 1.5449219 11.738281 C 1.3619219 11.638281 1.2581563 11.525625 1.1601562 11.265625 C 1.0631563 11.005625 1 10.592 1 10 L 1 4 C 1 3.408 1.0631563 2.994375 1.1601562 2.734375 C 1.2581563 2.474375 1.3619219 2.3627188 1.5449219 2.2617188 C 1.9099219 2.0597188 2.74 2.015 4 2 L 10.173828 2 L 11.171875 1 L 3.9980469 1 L 3.9941406 1 z " />
  <path
     d="m 6,12 h 4 v 1.5 c 0,1.5 0.5,1.5 1.5,1.5 h 0.5 v 1 h -8 v -1 h 0.5 c 1,0 1.5,0 1.5,-1.5 z"
     overflow="visible"
     id="path4"
     style="fill:#363636" />
  <path
     id="path280"
     style="fill:#363636;fill-rule:evenodd;stroke-width:0.5;stroke-linecap:round;stroke-linejoin:round;stroke-opacity:0.98512"
     d="M 8.5 4 A 2.5 2.5 0 0 0 6 6.5 C 6 9 6 9 5 10 C 6 10 11 10 11 6.5 A 2.5 2.5 0 0 0 8.5 4 z " />
  <path
     id="path1027"
     style="color:#000000;fill:#363636;-inkscape-stroke:none"
     d="M 13.585938 0 L 10.162109 3.4257812 C 10.75703 3.7505406 11.24946 4.2429697 11.574219 4.8378906 L 16 0.4140625 L 16 0 L 13.585938 0 z " />
</svg>

<svg version="1.1" viewBox="0 0 16 16" xmlns="http://www.w3.org/2000/svg">
 <g fill="#363636">
  <path d="m3.9941 1c-1.258 0.015-2.1796-0.030234-2.9316 0.38477a1.88 1.88 0 0 0-0.83789 0.99805c-0.165 0.439-0.22461 0.96019-0.22461 1.6172v6c0 0.658 0.059609 1.1792 0.22461 1.6172 0.164 0.439 0.46089 0.79005 0.83789 0.99805 0.752 0.416 1.6736 0.36977 2.9316 0.38477h8.0117c1.258-0.014 2.1786 0.030234 2.9316-0.38477a1.88 1.88 0 0 0 0.83789-0.99805c0.164-0.438 0.22461-0.96019 0.22461-1.6172v-6c0-0.658-0.059609-1.1782-0.22461-1.6172a1.88 1.88 0 0 0-0.10352-0.22656l-0.77344 0.77344c0.06294 0.25658 0.10156 0.60837 0.10156 1.0703v6c0 0.592-0.063156 1.0056-0.16016 1.2656-0.098 0.26-0.20272 0.37166-0.38672 0.47266-0.366 0.202-1.1941 0.24672-2.4531 0.26172h-8c-1.258-0.015-2.0901-0.059719-2.4551-0.26172-0.183-0.1-0.28677-0.21266-0.38477-0.47266-0.097-0.26-0.16016-0.67362-0.16016-1.2656v-6c0-0.592 0.063156-1.0056 0.16016-1.2656 0.098-0.26 0.20177-0.37166 0.38477-0.47266 0.365-0.202 1.1951-0.24672 2.4551-0.26172h6.1738l0.99805-1h-7.1738-0.0039063z" style="font-feature-settings:normal;font-variant-alternates:normal;font-variant-caps:normal;font-variant-ligatures:normal;font-variant-numeric:normal;font-variant-position:normal;isolation:auto;mix-blend-mode:normal;shape-padding:0;text-decoration-color:#000000;text-decoration-line:none;text-decoration-style:solid;text-indent:0;text-orientation:mixed;text-transform:none"/>
  <path d="m6 12h4v1.5c0 1.5 0.5 1.5 1.5 1.5h0.5v1h-8v-1h0.5c1 0 1.5 0 1.5-1.5z" overflow="visible"/>
  <path d="m8.5 4a2.5 2.5 0 0 0-2.5 2.5c0 2.5 0 2.5-1 3.5 1 0 6 0 6-3.5a2.5 2.5 0 0 0-2.5-2.5z" fill-rule="evenodd" stroke-linecap="round" stroke-linejoin="round" stroke-opacity=".98512" stroke-width=".5"/>
  <path d="m13.586 0-3.4238 3.4258c0.59492 0.32476 1.0874 0.81719 1.4121 1.4121l4.4258-4.4238v-0.41406h-2.4141z" color="#000000" style="-inkscape-stroke:none"/>
 </g>
</svg>
